X: 17
T: Rolling In The Barrel
Z: Erik-Fiddler
S: https://thesession.org/tunes/500#setting52160
R: reel
M: 4/4
L: 1/8
K: Edor
E2 FE BEFE|B/c/B AF DE F/E/D|(3E/E/E/E FE BE ~(3E/D/E/E|B/=c/B Ac BEED|
E2 FE BEFE|B/c/B AF DE F/E/D|(3E/E/E/E FE BE ~(3E/D/E/E|B/=c/B Ac BE Ez||
e2 g/f/e befe|dcdf a/b/a fd|e2 g/f/e befe|dBAd BEED|
e2 g/f/e befe|dcdf a/b/a fd|efge ~f(3f/e/f/f e|dBAF BEED||